X:10868
T:Miss Farquharson's Reel. BF11.30
T:My Love Is But A Lassie Yet. BF11.30
M:2/2
L:1/8
Q:150
C:Browne A hand
S:MS11,c1800.,Browne Coll.,Lakes
R:Reel
O:England
A:Lakes
N:Seems to bear more than a passing resemblance to "My love is but a
N:lassie yet. CGP.
Z:vmp.Cherri Graebe.
K:D Major
(B/c/)|dDFD dDDB/c/|dDFD BEEB/c/|!dDFD dgfe|(d/c/B/A/) Bc dDD:|!
|(f/g/)|afge fdd(f/g/)|afge eE E(f/g/)|!afge fdec|(d/c/B/A/ B)c dDD:||
